X:1
T:St. Beatrice, 76.76.76 D
T:St. Beatrice, 76.76.76 D
T:John Frederick Bridge, 1875
T:Public Domain Courtesy of the Cyber Hymnal™
C:John Frederick Bridge, 1875
Z:Public Domain
Z:Courtesy of the Cyber Hymnal™
%%score ( 1 2 ) ( 3 4 )
L:1/8
Q:1/4=115
M:none
K:C
V:1 treble 
V:2 treble 
V:3 bass 
V:4 bass 
V:1
 [CE]2 | [CF]3 [CF] [CA]2 [CF]2 | [B,F]4 [B,E]2 [B,D]2 | [CG]2 [CG]2 [FB]2 [FA]2 | [FG]6 [EG]2 | %5
 [FA]3 [CA] [Cc]2 [CA]2 | [DA]4 D2 [^Fd]2 | [Gd]2 [DB]2 [EA]2 [DB]2 | [B,G]6 [EG]2 | %9
 [E^F]2 [EG]2 [Ec]2 [EB]2 | [EA]4 [CA]2 [^CG]2 | [D^F]2 [FA]2 [Gd]2 [Ac]2 | B6 [FG]2 | %13
 [EG]2 [Ec]2 [Ee]2 [Ed]2 | [Ed]4 [Ec]2 [EB]2 | [EA]2 [EB]2 [Ec]2 [Ec]2 | [^DB]6 [EB]2 | %17
 [FB]3 [FG] [FA]2 [FB]2 | [Ec]4 [EG]2 [EG]2 | [_EA]3 [E^F] [EF]2 [EG]2 | A6 [^FA]2 | %21
 [Gd]2 [GB]2 [Gc]2 [Gd]2 | [Ge]4 [Ec]2 [FA]2 | [FG]2 [FA]2 [FB]2 [Fd]2 | [Ec]6 |] %25
V:2
 x2 | x8 | x8 | x8 | x8 | x8 | x4 D2 x2 | x8 | x8 | x8 | x8 | x8 | (A4 G2) x2 | x8 | x8 | x8 | x8 | %17
 x8 | x8 | x8 | (_E4 D2) x2 | x8 | x8 | x8 | x6 |] %25
V:3
 [C,G,]2 | [C,A,]3 [C,A,] [C,F,]2 [C,A,]2 | [D,G,]4 G,2 [F,G,]2 | [E,G,]2 [E,C]2 [D,B,]2 [C,C]2 | %4
 [B,,D]6 [C,C]2 | [F,C]3 [F,A,] [E,^G,]2 [F,A,]2 | [^F,C]4 [F,C]2 [D,C]2 | %7
 [G,B,]2 G,2 [C,G,]2 [D,^F,]2 | G,6 [E,B,]2 | [A,C]2 [G,B,]2 [^F,A,]2 [G,B,]2 | [A,C]4 [A,C]2 A,2 | %11
 [D,A,]2 [D,C]2 [E,B,]2 [^F,D]2 | [G,D]6 [B,D]2 | C2 [C,C]2 [C,G,]2 [E,^G,]2 | %14
 [A,,^G,]4 [A,,A,]2 [B,,=G,]2 | [C,^F,]2 [B,,G,]2 [A,,A,]2 [A,,G,]2 | [B,,^F,]6 [E,G,]2 | %17
 [D,G,]3 [G,B,] [G,C]2 [G,D]2 | [G,C]4 [G,C]2 [G,C]2 | [^F,C]3 [A,C] [A,C]2 [G,C]2 | %20
 [^F,C]6 [CD]2 | [B,D]2 [G,F]2 [A,E]2 [B,D]2 | C4 [C,C]2 [F,C]2 | [G,B,]2 [G,C]2 [G,,D]2 [G,,G,]2 | %24
 [C,G,]6 |] %25
V:4
 x2 | x8 | x4 G,2 x2 | x8 | x8 | x8 | x8 | x2 G,2 x4 | G,6 x2 | x8 | x6 A,2 | x8 | x8 | C2 x6 | %14
 x8 | x8 | x8 | x8 | x8 | x8 | x8 | x8 | C4 x4 | x8 | x6 |] %25

